X: 280
T: Bonaparte's Retreat
M: 4/4
L: 1/8
R: set dance
K: Gmaj
|: GF |\ 
DGGF GBAG | FGAd f2 fg | agfa gfeg | fdcA BGAF |
DGGF GBAG | FGAd f2 fg | agfd cAGF | A2 G2 G2 :|
|: de |\
fefg f2 df | gfga g2 de | fefg afge | gdcA BGAF |
fefg f2 df | gfga g2 fg | abag fgaf | gfga g2 fg |
a2 ab agfd | f2 fa gfed | fefg afge | fdcA BGAF |
DGGF GBAG | FGAd f2 fg | agfa gfeg | fdcA BGAF |
DGGF GBAG | FGAd f2 fg | agfd cAGF | A2 G2 G2 :|
